X:104
T:Cross-Eyed Fiddler
C:Kenny Baker
N:Tabbed by Tim Stearns
R:bluegrass
L:1/8
Q:1/4=225
M:4/4
K:E
z6 B,C |: "E"EB eE Be FB | GB eG Be FE | "D"=DA eD Ae EA | FA eF Ae E=D | "E"[B2E2] [e2B2] [BF]G [e2B2] | 
Bc BA G2 c2 | "E"[ee]c eg (3"A"fgf ec |1 ec BG (3"E"FGF E2 :|2 ec BG (3"E"FGF E2 | 
|: "E"Bc eg (3fgf eg | be =gf ec BA | "D"FA Bc =de fg | af bf af ec | "E"Bc eg (3fgf eg | 
be =gf ec Bc | e2 ce e2 ce |1 ec BG (3"E"FGF E2 :|2 ec BG (3"E"FGF E2 | 


